apps/www/public/images/launchweek/12/d2/realtime-light-mobile.svg

<svg width="349" height="175" viewBox="0 0 349 175" fill="none" xmlns="http://www.w3.org/2000/svg">
<g clip-path="url(#clip0_895_5170)">
<rect width="349" height="174" transform="translate(0 0.419922)" fill="white"/>
<g clip-path="url(#clip1_895_5170)">
<rect width="663.314" height="190.139" transform="translate(-296.657 -12.5693)" fill="white"/>
<path d="M454.474 28.3914H356.612C349.587 28.3914 342.823 31.0526 337.681 35.8392L304.162 67.0435C299.02 71.8301 292.256 74.4912 285.231 74.4912H216.5" stroke="#707070" stroke-width="0.434106" stroke-linecap="round"/>
<path d="M256.017 74.4917H184.791C177.421 74.4917 170.352 77.4206 165.141 82.6337L126.152 121.641C120.941 126.855 113.872 129.783 106.502 129.783H64.6948" stroke="#B2B2B2" stroke-width="0.434106" stroke-linecap="square" stroke-dasharray="1.74 2.6"/>
<path d="M99.1289 39.8125L133.622 39.8125C140.148 39.8125 146.466 42.11 151.468 46.3023L177.358 68.0014C182.36 72.1936 188.678 74.4912 195.204 74.4912H267.679" stroke="#525252" stroke-width="0.434106" stroke-linecap="round"/>
<circle cx="46.1658" cy="128.951" r="17.2825" fill="white" stroke="#B2B2B2" stroke-width="0.868213"/>
<path d="M52.9219 131.985V124.579C52.9219 124.142 52.7383 123.724 52.4115 123.415C52.0847 123.107 51.6414 122.933 51.1793 122.933H40.7236C40.2614 122.933 39.8182 123.107 39.4913 123.415C39.1645 123.724 38.9809 124.142 38.9809 124.579V131.985M52.9219 131.985H38.9809M52.9219 131.985L54.0371 134.083C54.1043 134.209 54.1361 134.349 54.1295 134.49C54.1229 134.631 54.0781 134.768 53.9993 134.888C53.9206 135.007 53.8106 135.106 53.68 135.174C53.5493 135.242 53.4022 135.278 53.253 135.277H38.6499C38.5006 135.278 38.3536 135.242 38.2229 135.174C38.0922 135.106 37.9822 135.007 37.9035 134.888C37.8248 134.768 37.7799 134.631 37.7733 134.49C37.7667 134.349 37.7985 134.209 37.8657 134.083L38.9809 131.985" stroke="#525252" stroke-width="0.580871" stroke-linecap="round" stroke-linejoin="round"/>
<g filter="url(#filter0_d_895_5170)">
<path d="M210.122 73.988C210.122 68.4801 214.587 64.0151 220.095 64.0151H267.513C273.021 64.0151 277.486 68.4801 277.486 73.988V73.988C277.486 79.4958 273.021 83.9608 267.513 83.9608H220.095C214.587 83.9608 210.122 79.4958 210.122 73.988V73.988Z" fill="#FCFCFC" shape-rendering="crispEdges"/>
<path d="M220.095 64.4492H267.513C272.782 64.4492 277.052 68.7199 277.052 73.988C277.052 79.2561 272.782 83.5267 267.513 83.5267H220.095C214.827 83.5267 210.556 79.2561 210.556 73.988C210.556 68.7199 214.827 64.4492 220.095 64.4492Z" stroke="#DFDFDF" stroke-width="0.868213" shape-rendering="crispEdges"/>
<path d="M222.98 73.4493V71.5305H222.911L221.634 74.6474L220.358 71.5305H220.289V73.4493V76.488H219.62V70.4279H220.558L221.626 73.102H221.678L222.746 70.4279H223.649V76.488H222.98V73.4493ZM226.146 76.488V70.4279H229.879V71.0617H226.875V73.102H229.775V73.7358H226.875V75.8542H229.879V76.488H226.146ZM234.286 76.5922C233.742 76.5922 233.296 76.4938 232.949 76.297C232.602 76.0944 232.315 75.8369 232.09 75.5243L232.619 75.0902C232.857 75.3854 233.105 75.6054 233.366 75.7501C233.632 75.8948 233.948 75.9671 234.312 75.9671C234.752 75.9671 235.088 75.8658 235.319 75.6632C235.551 75.4607 235.667 75.177 235.667 74.8124C235.667 74.5172 235.583 74.2886 235.415 74.1265C235.247 73.9586 234.955 73.84 234.538 73.7705L233.861 73.6577C233.566 73.6056 233.317 73.5274 233.114 73.4232C232.917 73.3191 232.758 73.1946 232.637 73.0499C232.515 72.8994 232.428 72.7374 232.376 72.5637C232.324 72.3843 232.298 72.1991 232.298 72.0081C232.298 71.4524 232.48 71.0328 232.845 70.7492C233.21 70.4655 233.702 70.3237 234.321 70.3237C234.807 70.3237 235.215 70.4048 235.545 70.5668C235.881 70.7289 236.15 70.9575 236.353 71.2527L235.84 71.6955C235.672 71.4756 235.47 71.2961 235.233 71.1572C234.995 71.0183 234.688 70.9488 234.312 70.9488C233.901 70.9488 233.586 71.0357 233.366 71.2093C233.146 71.3829 233.036 71.6434 233.036 71.9907C233.036 72.2627 233.117 72.4856 233.279 72.6592C233.447 72.8271 233.745 72.9486 234.173 73.0239L234.824 73.1367C235.12 73.1888 235.369 73.267 235.571 73.3712C235.774 73.4753 235.936 73.5998 236.057 73.7445C236.185 73.8892 236.274 74.0513 236.327 74.2307C236.379 74.4101 236.405 74.5982 236.405 74.795C236.405 75.3565 236.219 75.7964 235.849 76.1147C235.484 76.4331 234.963 76.5922 234.286 76.5922ZM240.621 76.5922C240.077 76.5922 239.631 76.4938 239.284 76.297C238.936 76.0944 238.65 75.8369 238.424 75.5243L238.954 75.0902C239.191 75.3854 239.44 75.6054 239.7 75.7501C239.967 75.8948 240.282 75.9671 240.647 75.9671C241.087 75.9671 241.422 75.8658 241.654 75.6632C241.885 75.4607 242.001 75.177 242.001 74.8124C242.001 74.5172 241.917 74.2886 241.749 74.1265C241.582 73.9586 241.289 73.84 240.873 73.7705L240.195 73.6577C239.9 73.6056 239.651 73.5274 239.449 73.4232C239.252 73.3191 239.093 73.1946 238.971 73.0499C238.85 72.8994 238.763 72.7374 238.711 72.5637C238.659 72.3843 238.633 72.1991 238.633 72.0081C238.633 71.4524 238.815 71.0328 239.18 70.7492C239.544 70.4655 240.036 70.3237 240.655 70.3237C241.142 70.3237 241.55 70.4048 241.88 70.5668C242.215 70.7289 242.485 70.9575 242.687 71.2527L242.175 71.6955C242.007 71.4756 241.804 71.2961 241.567 71.1572C241.33 71.0183 241.023 70.9488 240.647 70.9488C240.236 70.9488 239.92 71.0357 239.7 71.2093C239.481 71.3829 239.371 71.6434 239.371 71.9907C239.371 72.2627 239.452 72.4856 239.614 72.6592C239.781 72.8271 240.08 72.9486 240.508 73.0239L241.159 73.1367C241.454 73.1888 241.703 73.267 241.906 73.3712C242.108 73.4753 242.27 73.5998 242.392 73.7445C242.519 73.8892 242.609 74.0513 242.661 74.2307C242.713 74.4101 242.739 74.5982 242.739 74.795C242.739 75.3565 242.554 75.7964 242.184 76.1147C241.819 76.4331 241.298 76.5922 240.621 76.5922ZM248.544 76.488L248.032 74.7603H245.905L245.393 76.488H244.637L246.495 70.4279H247.459L249.317 76.488H248.544ZM247.007 71.2006H246.929L246.078 74.1265H247.858L247.007 71.2006ZM254.557 75.6806H254.514C254.462 75.7964 254.401 75.9092 254.332 76.0192C254.262 76.1292 254.173 76.2276 254.063 76.3144C253.958 76.3954 253.831 76.462 253.681 76.5141C253.53 76.5662 253.351 76.5922 253.142 76.5922C252.482 76.5922 251.99 76.326 251.666 75.7935C251.348 75.261 251.189 74.4969 251.189 73.5014C251.189 72.4595 251.365 71.6695 251.718 71.1312C252.071 70.5929 252.616 70.3237 253.351 70.3237C253.634 70.3237 253.88 70.3613 254.089 70.4366C254.297 70.5118 254.474 70.6131 254.618 70.7405C254.769 70.8678 254.893 71.0125 254.992 71.1746C255.09 71.3309 255.171 71.49 255.235 71.6521L254.61 71.9386C254.557 71.8055 254.497 71.681 254.427 71.5653C254.364 71.4437 254.283 71.3395 254.184 71.2527C254.092 71.1601 253.979 71.0878 253.846 71.0357C253.712 70.9836 253.556 70.9575 253.377 70.9575C252.891 70.9575 252.532 71.1398 252.3 71.5045C252.074 71.8691 251.962 72.3553 251.962 72.9631V73.9008C251.962 74.2075 251.985 74.4883 252.031 74.7429C252.077 74.9918 252.153 75.2089 252.257 75.3941C252.367 75.5793 252.506 75.724 252.673 75.8282C252.847 75.9266 253.058 75.9758 253.307 75.9758C253.701 75.9758 254.008 75.8571 254.228 75.6198C254.448 75.3825 254.557 75.0757 254.557 74.6995V74.0744H253.281V73.4927H255.235V76.488H254.557V75.6806ZM257.819 76.488V70.4279H261.552V71.0617H258.548V73.102H261.448V73.7358H258.548V75.8542H261.552V76.488H257.819ZM265.959 76.5922C265.415 76.5922 264.969 76.4938 264.622 76.297C264.275 76.0944 263.988 75.8369 263.762 75.5243L264.292 75.0902C264.529 75.3854 264.778 75.6054 265.039 75.7501C265.305 75.8948 265.62 75.9671 265.985 75.9671C266.425 75.9671 266.761 75.8658 266.992 75.6632C267.224 75.4607 267.339 75.177 267.339 74.8124C267.339 74.5172 267.256 74.2886 267.088 74.1265C266.92 73.9586 266.628 73.84 266.211 73.7705L265.534 73.6577C265.238 73.6056 264.99 73.5274 264.787 73.4232C264.59 73.3191 264.431 73.1946 264.309 73.0499C264.188 72.8994 264.101 72.7374 264.049 72.5637C263.997 72.3843 263.971 72.1991 263.971 72.0081C263.971 71.4524 264.153 71.0328 264.518 70.7492C264.882 70.4655 265.374 70.3237 265.994 70.3237C266.48 70.3237 266.888 70.4048 267.218 70.5668C267.554 70.7289 267.823 70.9575 268.025 71.2527L267.513 71.6955C267.345 71.4756 267.143 71.2961 266.905 71.1572C266.668 71.0183 266.361 70.9488 265.985 70.9488C265.574 70.9488 265.259 71.0357 265.039 71.2093C264.819 71.3829 264.709 71.6434 264.709 71.9907C264.709 72.2627 264.79 72.4856 264.952 72.6592C265.12 72.8271 265.418 72.9486 265.846 73.0239L266.497 73.1367C266.792 73.1888 267.041 73.267 267.244 73.3712C267.447 73.4753 267.609 73.5998 267.73 73.7445C267.857 73.8892 267.947 74.0513 267.999 74.2307C268.051 74.4101 268.077 74.5982 268.077 74.795C268.077 75.3565 267.892 75.7964 267.522 76.1147C267.157 76.4331 266.636 76.5922 265.959 76.5922Z" fill="#525252"/>
</g>
<rect x="147" y="39.8125" width="20.8371" height="20.8371" rx="5.20928" fill="white"/>
<rect x="147" y="39.8125" width="20.8371" height="20.8371" rx="5.20928" stroke="#525252" stroke-width="0.434106"/>
<path fill-rule="evenodd" clip-rule="evenodd" d="M157.71 55.4403C160.587 55.4403 162.92 53.108 162.92 50.231C162.92 47.354 160.587 45.0217 157.71 45.0217C154.833 45.0217 152.501 47.354 152.501 50.231C152.501 53.108 154.833 55.4403 157.71 55.4403ZM160.124 49.3891C160.378 49.1348 160.378 48.7225 160.124 48.4682C159.87 48.214 159.458 48.214 159.203 48.4682L157.059 50.6124L156.217 49.7706C155.963 49.5163 155.551 49.5163 155.296 49.7706C155.042 50.0249 155.042 50.4371 155.296 50.6914L156.599 51.9938C156.853 52.2481 157.265 52.2481 157.52 51.9938L160.124 49.3891Z" fill="#525252"/>
<rect x="133.019" y="90.397" width="20.8371" height="20.8371" rx="5.20928" fill="white"/>
<rect x="133.019" y="90.397" width="20.8371" height="20.8371" rx="5.20928" stroke="#DFDFDF" stroke-width="0.434106"/>
<path fill-rule="evenodd" clip-rule="evenodd" d="M143.727 106.025C146.604 106.025 148.936 103.692 148.936 100.815C148.936 97.9385 146.604 95.6062 143.727 95.6062C140.85 95.6062 138.518 97.9385 138.518 100.815C138.518 103.692 140.85 106.025 143.727 106.025ZM142.885 99.0527C142.631 98.7984 142.218 98.7984 141.964 99.0527C141.71 99.307 141.71 99.7193 141.964 99.9736L142.806 100.815L141.964 101.657C141.71 101.912 141.71 102.324 141.964 102.578C142.218 102.833 142.631 102.833 142.885 102.578L143.727 101.736L144.569 102.578C144.823 102.833 145.235 102.833 145.49 102.578C145.744 102.324 145.744 101.912 145.49 101.657L144.648 100.815L145.49 99.9736C145.744 99.7193 145.744 99.307 145.49 99.0527C145.235 98.7984 144.823 98.7984 144.569 99.0527L143.727 99.8946L142.885 99.0527Z" fill="#525252"/>
<circle cx="88.0877" cy="39.4353" r="17.2825" fill="white" stroke="#B2B2B2" stroke-width="0.868213"/>
<path d="M94.8437 42.4696V35.0635C94.8437 34.627 94.6601 34.2084 94.3333 33.8998C94.0065 33.5911 93.5633 33.4177 93.1011 33.4177H82.6454C82.1833 33.4177 81.74 33.5911 81.4132 33.8998C81.0864 34.2084 80.9028 34.627 80.9028 35.0635V42.4696M94.8437 42.4696H80.9028M94.8437 42.4696L95.959 44.568C96.0262 44.6939 96.058 44.834 96.0514 44.9748C96.0448 45.1157 95.9999 45.2526 95.9212 45.3723C95.8425 45.4921 95.7325 45.5908 95.6018 45.6589C95.4711 45.727 95.3241 45.7622 95.1748 45.7612H80.5717C80.4225 45.7622 80.2754 45.727 80.1447 45.6589C80.014 45.5908 79.9041 45.4921 79.8253 45.3723C79.7466 45.2526 79.7018 45.1157 79.6952 44.9748C79.6886 44.834 79.7204 44.6939 79.7876 44.568L80.9028 42.4696" stroke="#525252" stroke-width="0.580871" stroke-linecap="round" stroke-linejoin="round"/>
</g>
</g>
<defs>
<filter id="filter0_d_895_5170" x="207.517" y="61.4105" width="74.31" height="26.8915" filterUnits="userSpaceOnUse" color-interpolation-filters="sRGB">
<feFlood flood-opacity="0" result="BackgroundImageFix"/>
<feColorMatrix in="SourceAlpha" type="matrix" values="0 0 0 0 0 0 0 0 0 0 0 0 0 0 0 0 0 0 127 0" result="hardAlpha"/>
<feOffset dx="0.868213" dy="0.868213"/>
<feGaussianBlur stdDeviation="1.73643"/>
<feComposite in2="hardAlpha" operator="out"/>
<feColorMatrix type="matrix" values="0 0 0 0 0 0 0 0 0 0 0 0 0 0 0 0 0 0 0.15 0"/>
<feBlend mode="normal" in2="BackgroundImageFix" result="effect1_dropShadow_895_5170"/>
<feBlend mode="normal" in="SourceGraphic" in2="effect1_dropShadow_895_5170" result="shape"/>
</filter>
<clipPath id="clip0_895_5170">
<rect width="349" height="174" fill="white" transform="translate(0 0.419922)"/>
</clipPath>
<clipPath id="clip1_895_5170">
<rect width="663.314" height="190.139" fill="white" transform="translate(-296.657 -12.5693)"/>
</clipPath>
</defs>
</svg>

<svg xmlns="http://www.w3.org/2000/svg" width="349" height="175" fill="none" viewBox="0 0 349 175"><g clip-path="url(#a)"><path fill="#fff" d="M0 .42h349v174H0z"/><g clip-path="url(#b)"><path fill="#fff" d="M-296.657-12.57h663.314v190.14h-663.314z"/><path stroke="#707070" stroke-linecap="round" stroke-width=".434" d="M454.474 28.391h-97.862a27.78 27.78 0 0 0-18.931 7.448l-33.519 31.204a27.78 27.78 0 0 1-18.931 7.448H216.5"/><path stroke="#b2b2b2" stroke-dasharray="1.74 2.6" stroke-linecap="square" stroke-width=".434" d="M256.017 74.492h-71.226a27.79 27.79 0 0 0-19.65 8.142l-38.989 39.007a27.78 27.78 0 0 1-19.65 8.142H64.695"/><path stroke="#525252" stroke-linecap="round" stroke-width=".434" d="M99.129 39.813h34.493a27.78 27.78 0 0 1 17.846 6.49L177.358 68a27.78 27.78 0 0 0 17.846 6.49h72.475"/><circle cx="46.166" cy="128.951" r="17.282" fill="#fff" stroke="#b2b2b2" stroke-width=".868"/><path stroke="#525252" stroke-linecap="round" stroke-linejoin="round" stroke-width=".581" d="M52.922 131.985v-7.406c0-.437-.184-.855-.51-1.164a1.8 1.8 0 0 0-1.233-.482H40.724a1.8 1.8 0 0 0-1.233.482c-.327.309-.51.727-.51 1.164v7.406m13.94 0h-13.94m13.94 0 1.116 2.098a.79.79 0 0 1-.038.805.86.86 0 0 1-.319.286.9.9 0 0 1-.427.103H38.65a.9.9 0 0 1-.427-.103.86.86 0 0 1-.32-.286.79.79 0 0 1-.037-.805l1.115-2.098"/><g filter="url(#c)"><path fill="#fcfcfc" d="M210.122 73.988c0-5.508 4.465-9.973 9.973-9.973h47.418c5.508 0 9.973 4.465 9.973 9.973s-4.465 9.973-9.973 9.973h-47.418c-5.508 0-9.973-4.465-9.973-9.973" shape-rendering="crispEdges"/><path stroke="#dfdfdf" stroke-width=".868" d="M220.095 64.45h47.418a9.54 9.54 0 0 1 9.539 9.538 9.54 9.54 0 0 1-9.539 9.539h-47.418c-5.268 0-9.539-4.27-9.539-9.539 0-5.268 4.271-9.539 9.539-9.539Z" shape-rendering="crispEdges"/><path fill="#525252" d="M222.98 73.45v-1.92h-.069l-1.277 3.117-1.276-3.117h-.069v4.958h-.669v-6.06h.938l1.068 2.674h.052l1.068-2.674h.903v6.06h-.669zm3.166 3.038v-6.06h3.733v.634h-3.004v2.04h2.9v.634h-2.9v2.118h3.004v.634zm8.14.104q-.816 0-1.337-.295a2.75 2.75 0 0 1-.859-.773l.529-.434q.356.443.747.66.4.217.946.217.66 0 1.007-.304.348-.304.348-.85 0-.443-.252-.687-.252-.25-.877-.356l-.677-.112a2.7 2.7 0 0 1-.747-.235 1.6 1.6 0 0 1-.477-.373 1.4 1.4 0 0 1-.261-.486 2 2 0 0 1-.078-.556q0-.833.547-1.259t1.476-.425q.729 0 1.224.243.504.243.808.686l-.513.442q-.252-.33-.607-.538-.357-.208-.921-.208-.616 0-.946.26t-.33.782a.94.94 0 0 0 .243.668q.252.252.894.365l.651.113q.444.078.747.234.304.156.486.374.191.216.27.486.078.27.078.564 0 .842-.556 1.32-.547.477-1.563.477m6.335 0q-.816 0-1.337-.295a2.8 2.8 0 0 1-.86-.773l.53-.434q.356.443.746.66.4.217.947.217.66 0 1.007-.304t.347-.85q0-.443-.252-.687-.251-.25-.876-.356l-.678-.112a2.6 2.6 0 0 1-.746-.235 1.6 1.6 0 0 1-.478-.373 1.4 1.4 0 0 1-.26-.486 2 2 0 0 1-.078-.556q0-.833.547-1.259.546-.425 1.475-.425.73 0 1.225.243.503.243.807.686l-.512.442q-.252-.33-.608-.538t-.92-.208q-.617 0-.947.26t-.329.782a.94.94 0 0 0 .243.668q.251.252.894.365l.651.113q.442.078.747.234.303.156.486.374.19.216.269.486.078.27.078.564 0 .842-.555 1.32-.547.477-1.563.477m7.923-.104-.512-1.728h-2.127l-.512 1.728h-.756l1.858-6.06h.964l1.858 6.06zm-1.537-5.287h-.078l-.851 2.925h1.78zm7.55 4.48h-.043a3 3 0 0 1-.182.338 1.2 1.2 0 0 1-.651.495q-.226.078-.539.078-.99 0-1.476-.799-.477-.798-.477-2.292 0-1.562.529-2.37.53-.807 1.633-.807.424 0 .738.113.313.113.529.303.226.192.374.435.147.234.243.477l-.625.287a2.5 2.5 0 0 0-.183-.374 1.1 1.1 0 0 0-.243-.312 1 1 0 0 0-.338-.217 1.3 1.3 0 0 0-.469-.079q-.729 0-1.077.547-.339.547-.338 1.46v.937q0 .46.069.842.07.373.226.651.165.278.416.434.26.148.634.148.591 0 .921-.356t.329-.92v-.626h-1.276v-.581h1.954v2.995h-.678zm3.262.807v-6.06h3.733v.634h-3.004v2.04h2.9v.634h-2.9v2.118h3.004v.634zm8.14.104q-.816 0-1.337-.295a2.8 2.8 0 0 1-.86-.773l.53-.434q.356.443.747.66.399.217.946.217.66 0 1.007-.304.348-.304.347-.85 0-.443-.251-.687-.252-.25-.877-.356l-.677-.112a2.6 2.6 0 0 1-.747-.235 1.6 1.6 0 0 1-.478-.373 1.4 1.4 0 0 1-.26-.486 2 2 0 0 1-.078-.556q0-.833.547-1.259.546-.425 1.476-.425.729 0 1.224.243.504.243.807.686l-.512.442q-.252-.33-.608-.538t-.92-.208q-.616 0-.946.26t-.33.782a.94.94 0 0 0 .243.668q.252.252.894.365l.651.113q.443.078.747.234t.486.374q.19.216.269.486.078.27.078.564 0 .842-.555 1.32-.548.477-1.563.477"/></g><rect width="20.837" height="20.837" x="147" y="39.813" fill="#fff" rx="5.209"/><rect width="20.837" height="20.837" x="147" y="39.813" stroke="#525252" stroke-width=".434" rx="5.209"/><path fill="#525252" fill-rule="evenodd" d="M157.71 55.44a5.21 5.21 0 1 0 0-10.42 5.21 5.21 0 0 0 0 10.42m2.414-6.05a.652.652 0 0 0-.921-.922l-2.144 2.144-.842-.841a.651.651 0 0 0-.921.92l1.303 1.303a.65.65 0 0 0 .921 0z" clip-rule="evenodd"/><rect width="20.837" height="20.837" x="133.019" y="90.397" fill="#fff" rx="5.209"/><rect width="20.837" height="20.837" x="133.019" y="90.397" stroke="#dfdfdf" stroke-width=".434" rx="5.209"/><path fill="#525252" fill-rule="evenodd" d="M143.727 106.025a5.21 5.21 0 1 0-.001-10.42 5.21 5.21 0 0 0 .001 10.42m-.842-6.972a.651.651 0 0 0-.921.92l.842.842-.842.842a.652.652 0 0 0 .921.921l.842-.842.842.842a.65.65 0 1 0 .921-.921l-.842-.842.842-.841a.652.652 0 0 0-.921-.921l-.842.842z" clip-rule="evenodd"/><circle cx="88.088" cy="39.435" r="17.282" fill="#fff" stroke="#b2b2b2" stroke-width=".868"/><path stroke="#525252" stroke-linecap="round" stroke-linejoin="round" stroke-width=".581" d="M94.844 42.47v-7.407a1.6 1.6 0 0 0-.51-1.163 1.8 1.8 0 0 0-1.233-.482H82.645c-.462 0-.905.173-1.232.482a1.6 1.6 0 0 0-.51 1.163v7.407m13.94 0h-13.94m13.94 0 1.116 2.098a.79.79 0 0 1-.038.804.85.85 0 0 1-.32.287.9.9 0 0 1-.426.102H80.572a.9.9 0 0 1-.427-.102.85.85 0 0 1-.32-.287.79.79 0 0 1-.037-.804l1.115-2.098"/></g></g><defs><clipPath id="a"><path fill="#fff" d="M0 .42h349v174H0z"/></clipPath><clipPath id="b"><path fill="#fff" d="M-296.657-12.57h663.314v190.14h-663.314z"/></clipPath><filter id="c" width="74.31" height="26.892" x="207.517" y="61.41" color-interpolation-filters="sRGB" filterUnits="userSpaceOnUse"><feFlood flood-opacity="0" result="BackgroundImageFix"/><feColorMatrix in="SourceAlpha" result="hardAlpha" values="0 0 0 0 0 0 0 0 0 0 0 0 0 0 0 0 0 0 127 0"/><feOffset dx=".868" dy=".868"/><feGaussianBlur stdDeviation="1.736"/><feComposite in2="hardAlpha" operator="out"/><feColorMatrix values="0 0 0 0 0 0 0 0 0 0 0 0 0 0 0 0 0 0 0.15 0"/><feBlend in2="BackgroundImageFix" result="effect1_dropShadow_895_5170"/><feBlend in="SourceGraphic" in2="effect1_dropShadow_895_5170" result="shape"/></filter></defs></svg>
